X:21
T: ICH ARMES WELSCHES TEUFEL
N: F0069
O: Europa, Mitteleuropa, Deutschland
R: Scherz -, Wander - Lied
M: 2/4
L: 1/16
K: C
G,2 | C2C2G,2G,2 | A,2A,2z2
E,2 | F,3D,G,2G,2 | C,4z2
C2 | C4C,2C2 | C4C,2
E,2 | F,3D,G,2G,2 | C,4z2
C2 | C2E2E2D2 | D2C2z2
C2 | D2D2B,2B,2 | C4
E4 | C4E4 | C4Ez
C2 | D2D2B,2B,2 | C4z2
E2 | E2G2G2F2 | F2E2z2
G2 | F2F2D2D2 | E4
G4 | E4G4 | E4Gz
G2 | F2F2D2D2 | E4z2

@@@ Tune index: 5452
